mimes/64/application-pdf.svg

<?xml version="1.0" encoding="UTF-8" standalone="no"?>
<svg
   xmlns:dc="http://purl.org/dc/elements/1.1/"
   xmlns:cc="http://creativecommons.org/ns#"
   xmlns:rdf="http://www.w3.org/1999/02/22-rdf-syntax-ns#"
   xmlns:svg="http://www.w3.org/2000/svg"
   xmlns="http://www.w3.org/2000/svg"
   xmlns:xlink="http://www.w3.org/1999/xlink"
   width="64px"
   height="64px"
   id="svg4347"
   version="1.1">
  <defs
     id="defs4349">
    <linearGradient
       xlink:href="#linearGradient3977-4"
       id="linearGradient3132"
       gradientUnits="userSpaceOnUse"
       gradientTransform="matrix(1.2162162,0,0,1.5405376,2.8108184,-6.97295)"
       x1="23.99999"
       y1="5.8641062"
       x2="23.99999"
       y2="42.100208" />
    <linearGradient
       id="linearGradient3977-4">
      <stop
         id="stop3979-7"
         style="stop-color:#ffffff;stop-opacity:1"
         offset="0" />
      <stop
         id="stop3981-6"
         style="stop-color:#ffffff;stop-opacity:0.23529412"
         offset="0.01214366" />
      <stop
         id="stop3983-5"
         style="stop-color:#ffffff;stop-opacity:0.15686275"
         offset="0.98781353" />
      <stop
         id="stop3985-6"
         style="stop-color:#ffffff;stop-opacity:0.39215687"
         offset="1" />
    </linearGradient>
    <linearGradient
       xlink:href="#linearGradient5803-2-7"
       id="linearGradient3983"
       gradientUnits="userSpaceOnUse"
       gradientTransform="matrix(1.075707,0,0,1.075707,-64.769602,-4.3785349)"
       x1="167.98311"
       y1="8.50811"
       x2="167.98311"
       y2="54.780239" />
    <linearGradient
       id="linearGradient5803-2-7">
      <stop
         offset="0"
         style="stop-color:#fffdf3;stop-opacity:1"
         id="stop5805-3-6" />
      <stop
         offset="1"
         style="stop-color:#fbebeb;stop-opacity:1"
         id="stop5807-0-0" />
    </linearGradient>
    <radialGradient
       xlink:href="#linearGradient3242-4"
       id="radialGradient3988-4"
       gradientUnits="userSpaceOnUse"
       gradientTransform="matrix(0,10.087121,-12.383763,0,155.87414,-97.777008)"
       cx="8.276144"
       cy="9.9941158"
       fx="8.276144"
       fy="9.9941158"
       r="12.671875" />
    <linearGradient
       id="linearGradient3242-4">
      <stop
         offset="0"
         style="stop-color:#f89b7e;stop-opacity:1"
         id="stop3244-7" />
      <stop
         offset="0.26238"
         style="stop-color:#e35d4f;stop-opacity:1"
         id="stop3246-1" />
      <stop
         offset="0.66093999"
         style="stop-color:#c6262e;stop-opacity:1"
         id="stop3248-5" />
      <stop
         offset="1"
         style="stop-color:#690b2c;stop-opacity:1"
         id="stop3250-7" />
    </linearGradient>
    <radialGradient
       xlink:href="#linearGradient5060"
       id="radialGradient3138"
       gradientUnits="userSpaceOnUse"
       gradientTransform="matrix(0.03132633,0,0,0.02058823,35.220859,49.45142)"
       cx="605.71429"
       cy="486.64789"
       fx="605.71429"
       fy="486.64789"
       r="117.14286" />
    <linearGradient
       id="linearGradient5060">
      <stop
         id="stop5062"
         style="stop-color:#000000;stop-opacity:1"
         offset="0" />
      <stop
         id="stop5064"
         style="stop-color:#000000;stop-opacity:0"
         offset="1" />
    </linearGradient>
    <radialGradient
       xlink:href="#linearGradient5060"
       id="radialGradient3141"
       gradientUnits="userSpaceOnUse"
       gradientTransform="matrix(-0.03132632,0,0,0.02058823,28.779136,49.45142)"
       cx="605.71429"
       cy="486.64789"
       fx="605.71429"
       fy="486.64789"
       r="117.14286" />
    <linearGradient
       id="linearGradient5048">
      <stop
         id="stop5050"
         style="stop-color:#000000;stop-opacity:0"
         offset="0" />
      <stop
         id="stop5056"
         style="stop-color:#000000;stop-opacity:1"
         offset="0.5" />
      <stop
         id="stop5052"
         style="stop-color:#000000;stop-opacity:0"
         offset="1" />
    </linearGradient>
    <linearGradient
       y2="609.50507"
       x2="302.85715"
       y1="366.64789"
       x1="302.85715"
       gradientTransform="matrix(0.09153846,0,0,0.02058823,-1.084616,49.45142)"
       gradientUnits="userSpaceOnUse"
       id="linearGradient4345"
       xlink:href="#linearGradient5048" />
  </defs>
  <metadata
     id="metadata4352">
    <rdf:RDF>
      <cc:Work
         rdf:about="">
        <dc:format>image/svg+xml</dc:format>
        <dc:type
           rdf:resource="http://purl.org/dc/dcmitype/StillImage" />
        <dc:title />
      </cc:Work>
    </rdf:RDF>
  </metadata>
  <g
     id="layer1">
    <rect
       style="opacity:0.3;fill:url(#linearGradient4345);fill-opacity:1;fill-rule:nonzero;stroke:none;stroke-width:1;marker:none;visibility:visible;display:inline;overflow:visible"
       id="rect2879"
       y="57.000004"
       x="9.8999996"
       height="5"
       width="44.199997" />
    <path
       style="opacity:0.3;fill:url(#radialGradient3141);fill-opacity:1;fill-rule:nonzero;stroke:none;stroke-width:1;marker:none;visibility:visible;display:inline;overflow:visible"
       id="path2881"
       d="m 9.9,57.00022 c 0,0 0,4.9997 0,4.9997 -1.6132281,0.01 -3.9,-1.1202 -3.9,-2.5002 0,-1.38 1.8002408,-2.4995 3.9,-2.4995 z" />
    <path
       style="opacity:0.3;fill:url(#radialGradient3138);fill-opacity:1;fill-rule:nonzero;stroke:none;stroke-width:1;marker:none;visibility:visible;display:inline;overflow:visible"
       id="path2883"
       d="m 54.099999,57.00022 c 0,0 0,4.9997 0,4.9997 C 55.713227,62.00992 58,60.87972 58,59.49972 c 0,-1.38 -1.800241,-2.4995 -3.900001,-2.4995 z" />
    <path
       style="color:#000000;fill:url(#radialGradient3988-4);fill-opacity:1;fill-rule:nonzero;stroke:none;stroke-width:0.99999994;marker:none;visibility:visible;display:inline;overflow:visible;enable-background:accumulate"
       id="path4160-6"
       d="m 8.5,0.5000001 c 10.770086,0 46.999944,0.004069 46.999944,0.004069 L 55.5,59.5 c 0,0 -31.333333,0 -47,0 0,-19.666687 0,-39.333069 0,-58.99967438 z" />
    <path
       style="opacity:0.15;color:#000000;fill:#661215;fill-opacity:1;fill-rule:evenodd;stroke:none;stroke-width:1;marker:none;visibility:visible;display:inline;overflow:visible;enable-background:accumulate"
       d="m 37.78125,1.0000001 a 0.98533857,0.98533857 0 0 0 -0.5625,0.25 C 24.067093,12.534838 14.781781,17.260191 9,19.25 l 0,8.15625 A 0.98533857,0.98533857 0 0 0 9.28125,27.375 C 12.636386,26.387036 16.798321,24.772454 21.125,22.0625 29.023074,17.115652 36.446293,10.11443 39.78125,6.9062501 38.806602,10.783045 38.180255,16.301829 37.71875,23.34375 37.092051,32.906283 36.82247,45.124037 36.78125,59 L 55,59 55,33.1875 c -0.372987,-1.811039 -0.737519,-3.612744 -1.0625,-5.375 -0.0028,-0.0216 0.0028,-0.04091 0,-0.0625 C 52.66566,18.014971 54.009446,9.3242997 55,4.6875001 l 0,-3.59375 a 0.98533857,0.98533857 0 0 0 -0.25,-0.09375 c -0.14152,-1.59e-5 -10.296974,6.912e-4 -16.96875,0 z M 9,32.84375 9,40.8125 C 15.722903,43.72237 23.58101,50.826841 28.28125,59 l 7.5,0 c -1.473629,-4.41581 -5.564524,-9.382986 -10.4375,-14.03125 -5.149816,-4.912338 -11.153373,-9.401704 -15.875,-12 A 0.98533857,0.98533857 0 0 0 9,32.84375 z"
       id="path4203" />
    <path
       style="opacity:0.35;color:#000000;fill:none;stroke:#410000;stroke-width:1;stroke-linecap:round;stroke-linejoin:round;stroke-miterlimit:4;stroke-opacity:1;stroke-dasharray:none;stroke-dashoffset:0;marker:none;visibility:visible;display:inline;overflow:visible;enable-background:accumulate"
       id="path4160-6-1"
       d="m 8.4999684,0.4999 c 10.7700936,0 47.0000286,0.004 47.0000286,0.004 l 4.9e-5,58.99622 c 0,0 -31.333384,0 -47.0000776,0 0,-19.6668 0,-39.3334 0,-58.99997 z" />
    <path
       style="opacity:0.3;color:#000000;fill:#661215;fill-opacity:1;fill-rule:evenodd;stroke:none;stroke-width:1;marker:none;visibility:visible;display:inline;overflow:visible;enable-background:accumulate"
       d="M 37.875,2.0000001 C 24.426461,13.539579 14.910308,18.33263 9,20.3125 l 0,6.125 c 3.284751,-0.967238 7.356975,-2.565106 11.59375,-5.21875 9.747583,-6.105262 21.375,-17.6874999 21.375,-17.6874999 C 38.811243,9.7248877 37.863125,30.925001 37.78125,59 L 55,59 55,37.96875 C 54.244748,34.606873 53.570816,31.205377 52.96875,27.9375 51.382781,15.902436 53.725493,5.3901552 54.59375,2.0000001 c -0.225923,-2.55e-5 -10.16441,6.795e-4 -16.71875,0 z M 9,33.84375 9,39.75 C 16.233379,42.73568 24.581903,50.252004 29.4375,59 l 5.34375,0 C 31.725894,50.619337 17.867791,38.723667 9,33.84375 z"
       id="path6711-3" />
    <path
       style="color:#000000;fill:url(#linearGradient3983);fill-opacity:1;fill-rule:nonzero;stroke:none;marker:none;visibility:visible;display:inline;overflow:visible;enable-background:accumulate"
       d="M 37.875,1.0000001 C 24.426461,12.539579 14.910308,17.33263 9,19.3125 l 0,6.125 c 3.284751,-0.967238 7.356975,-2.565106 11.59375,-5.21875 9.747583,-6.105262 21.375,-17.6874999 21.375,-17.6874999 C 38.772738,8.8004171 37.843006,30.413387 37.78125,59 L 55,59 55,36.96875 C 54.244748,33.606873 53.570816,30.205377 52.96875,26.9375 51.382781,14.902436 53.725493,4.3901552 54.59375,1.0000001 c -0.225923,-2.54e-5 -10.16441,6.795e-4 -16.71875,0 z M 9,32.84375 9,38.75 C 16.504646,41.847649 25.209587,49.833778 29.96875,59 l 5.125,0 C 32.838316,50.595378 18.221314,37.91821 9,32.84375 z"
       id="path6711" />
    <path
       style="opacity:0.05;fill:#000000;fill-opacity:1;fill-rule:evenodd;stroke:none"
       d="M 55,1.3750001 C 47.699975,5.7934833 26.879425,17.4504 9,18.5 L 9,32.1875 C 19.438497,33.237626 41.436724,34.536348 55,28.75 L 55,1.3750001 z M 55,37.125 C 49.37478,43.641608 44.044801,51.222798 40.15625,58.96875 l 6.125,0 C 48.859598,54.613034 51.903942,49.985265 55,45.9375 l 0,-8.8125 z"
       id="path6713" />
    <path
       style="opacity:0.5;fill:none;stroke:url(#linearGradient3132);stroke-width:1;stroke-linecap:round;stroke-linejoin:miter;stroke-miterlimit:4;stroke-opacity:1;stroke-dasharray:none;stroke-dashoffset:0"
       id="rect6741-1-8"
       d="m 54.499999,58.50002 -44.9999992,0 0,-57.00004 44.9999992,0 z" />
  </g>
</svg>

<svg xmlns="http://www.w3.org/2000/svg" xmlns:xlink="http://www.w3.org/1999/xlink" viewBox="0 0 64 64"><defs><linearGradient xlink:href="#a" id="k" gradientUnits="userSpaceOnUse" gradientTransform="matrix(1.21622 0 0 1.54054 2.81 -6.973)" x1="24" y1="5.864" x2="24" y2="42.1"/><linearGradient id="a"><stop offset="0" stop-color="#fff"/><stop offset=".012" stop-color="#fff" stop-opacity=".235"/><stop offset=".988" stop-color="#fff" stop-opacity=".157"/><stop offset="1" stop-color="#fff" stop-opacity=".392"/></linearGradient><linearGradient xlink:href="#b" id="j" gradientUnits="userSpaceOnUse" gradientTransform="translate(-64.77 -4.38) scale(1.0757)" x1="167.983" y1="8.508" x2="167.983" y2="54.78"/><linearGradient id="b"><stop offset="0" stop-color="#fffdf3"/><stop offset="1" stop-color="#fbebeb"/></linearGradient><radialGradient xlink:href="#c" id="i" gradientUnits="userSpaceOnUse" gradientTransform="matrix(0 10.08712 -12.38376 0 155.874 -97.777)" cx="8.276" cy="9.994" fx="8.276" fy="9.994" r="12.672"/><linearGradient id="c"><stop offset="0" stop-color="#f89b7e"/><stop offset=".262" stop-color="#e35d4f"/><stop offset=".661" stop-color="#c6262e"/><stop offset="1" stop-color="#690b2c"/></linearGradient><radialGradient xlink:href="#d" id="h" gradientUnits="userSpaceOnUse" gradientTransform="matrix(.03133 0 0 .0206 35.22 49.45)" cx="605.714" cy="486.648" fx="605.714" fy="486.648" r="117.143"/><linearGradient id="d"><stop offset="0"/><stop offset="1" stop-opacity="0"/></linearGradient><radialGradient xlink:href="#d" id="g" gradientUnits="userSpaceOnUse" gradientTransform="matrix(-.03133 0 0 .0206 28.78 49.45)" cx="605.714" cy="486.648" fx="605.714" fy="486.648" r="117.143"/><linearGradient id="e"><stop offset="0" stop-opacity="0"/><stop offset=".5"/><stop offset="1" stop-opacity="0"/></linearGradient><linearGradient y2="609.505" x2="302.857" y1="366.648" x1="302.857" gradientTransform="matrix(.09154 0 0 .0206 -1.085 49.45)" gradientUnits="userSpaceOnUse" id="f" xlink:href="#e"/></defs><path opacity=".3" fill="url(#f)" overflow="visible" d="M9.9 57h44.2v5H9.9z"/><path d="M9.9 57v5c-1.613.01-3.9-1.12-3.9-2.5S7.8 57 9.9 57z" opacity=".3" fill="url(#g)" overflow="visible"/><path d="M54.1 57v5c1.613.01 3.9-1.12 3.9-2.5S56.2 57 54.1 57z" opacity=".3" fill="url(#h)" overflow="visible"/><path d="M8.5.5l47 .004V59.5h-47V.5z" color="#000" fill="url(#i)" overflow="visible"/><path d="M37.78 1a.985.985 0 0 0-.56.25C24.066 12.535 14.78 17.26 9 19.25v8.156a.985.985 0 0 0 .28-.03 47.68 47.68 0 0 0 11.845-5.314c7.898-4.946 15.32-11.948 18.656-15.156-.97 3.877-1.6 9.396-2.06 16.438-.625 9.562-.895 21.78-.94 35.656H55V33.187c-.373-1.81-.738-3.612-1.063-5.374-.002-.022.003-.04 0-.063-1.27-9.735.072-18.426 1.063-23.062V1.094A.985.985 0 0 0 54.75 1H37.78zM9 32.844v7.968C15.723 43.722 23.58 50.828 28.28 59h7.5c-1.472-4.416-5.563-9.383-10.436-14.03-5.15-4.914-11.154-9.403-15.875-12a.985.985 0 0 0-.47-.126z" opacity=".15" color="#000" fill="#661215" fill-rule="evenodd" overflow="visible"/><path d="M8.5.5l47 .004V59.5h-47V.5z" opacity=".35" color="#000" fill="none" stroke="#410000" stroke-linecap="round" stroke-linejoin="round" overflow="visible"/><path d="M37.875 2C24.425 13.54 14.91 18.333 9 20.313v6.125a46.798 46.798 0 0 0 11.594-5.22C30.34 15.114 41.97 3.532 41.97 3.532 38.81 9.726 37.862 30.926 37.78 59H55V37.97a265.568 265.568 0 0 1-2.03-10.032C51.382 15.902 53.724 5.39 54.593 2h-16.72zM9 33.844v5.906C16.233 42.736 24.582 50.252 29.438 59h5.343C31.73 50.62 17.87 38.724 9 33.844z" opacity=".3" color="#000" fill="#661215" fill-rule="evenodd" overflow="visible"/><path d="M37.875 1C24.425 12.54 14.91 17.333 9 19.313v6.125a46.798 46.798 0 0 0 11.594-5.22C30.34 14.114 41.97 2.532 41.97 2.532 38.772 8.8 37.842 30.414 37.78 59H55V36.97a265.568 265.568 0 0 1-2.03-10.032C51.382 14.902 53.724 4.39 54.593 1h-16.72zM9 32.844v5.906C16.505 41.848 25.21 49.834 29.97 59h5.124C32.838 50.595 18.22 37.918 9 32.844z" color="#000" fill="url(#j)" overflow="visible"/><path d="M55 1.375C47.7 5.793 26.88 17.45 9 18.5v13.688c10.438 1.05 32.437 2.348 46-3.438V1.375zm0 35.75c-5.625 6.517-10.955 14.098-14.844 21.844h6.125c2.58-4.36 5.627-8.988 8.72-13.035v-8.813z" opacity=".05" fill-rule="evenodd"/><path d="M54.5 58.5h-45v-57h45z" opacity=".5" fill="none" stroke="url(#k)" stroke-linecap="round"/></svg>
